X: 77
T:Missa Allez regretz I / Gloria
N: Derived from Jos0701b-Missa_Allez_regretz_I-Gloria.krn
C: Josquin des Prez
%%abc-version 2.0
%%abcx-abcm2ps-target-version 5.9.1 (29 Sep 2008)
%%abc-creator hum2abc beta
%%abcx-conversion-date 2019/02/12 16:15:42
%%abc-edited-by Jesse Rodin
%%abc-edited-by Jesse Rodin; Victoria Chang 2012/02/27
%%abcx-initial-encoding-date 2012/02/27/
%%humdrum-veritas 2971418688
%%humdrum-veritas-data 1944430427
%%linebreak <none>
%%barnumbers 0
L: 1/4
M: 4/2
Q: 1/2=120
%%staves [1 2 3 4]
V: 1 clef=treble
V: 2 clef=treble-8
V: 3 clef=treble-8
V: 4 clef=bass
K: F
[V:1] z8 | 
[V:2] z8 | 
[V:3] F3FF2G2 | 
[V:4] z8 | 
[V:1] z8 | 
[V:2] F3FF2G2 | 
[V:3] A2c2c2B2 | 
[V:4] z8 | 
[V:1] C3CC2D2 | 
[V:2] A2c2c2B2 | 
[V:3] c4z4 | 
[V:4] z8 | 
[V:1] E2G2G2F2 | 
[V:2] c2_e4d2 | 
[V:3] z2c3BA2 | 
[V:4] C,3C,C,2D,2 | 
[V:1] G2G2G2G2 | 
[V:2] c2B2d2e2 | 
[V:3] G2B4B2 | 
[V:4] E,2G,2G,F,G,2 | 
[V:1] A2A2A4 | 
[V:2] f2c2d2d2 | 
[V:3] A4A2A2 | 
[V:4] F,4D,2D,2 | 
[V:1] z4z2G2 | 
[V:2] c4c2d2 | 
[V:3] A2A2A2B2- | 
[V:4] F,6B,,2 | 
[V:1] G2G2F2F2 | 
[V:2] B2c2d4 | 
[V:3] B2G2A4 | 
[V:4] _E,4D,4 | 
[V:1] B2B2B2B2 | 
[V:2] B2GABcde | 
[V:3] G4z2G2 | 
[V:4] z2G,2G,2G,2 | 
[V:1] A2A2G2G2 | 
[V:2] f4d4 | 
[V:3] c4B2B2 | 
[V:4] F,2F,2G,2G,2 | 
[V:1] G3F/E/D2E2- | 
[V:2] e2c2d2c2- | 
[V:3] c2A2B2G2 | 
[V:4] C,2C,2B,,2C,2 | 
[V:1] ECF4E2 | 
[V:2] c2B2c4 | 
[V:3] A2F2G4 | 
[V:4] C,2D,2C,2C,2 | 
[V:1] F8 | 
[V:2] z2c2c2c2 | 
[V:3] F8 | 
[V:4] F,4z2A,2 | 
[V:1] z8 | 
[V:2] B2A2G4 | 
[V:3] z8 | 
[V:4] G,2F,2F,2E,2 | 
[V:1] z4A3A | 
[V:2] F4f3f | 
[V:3] z4c3c | 
[V:4] F,4F,3F, | 
[V:1] A2A3AA2 | 
[V:2] f2f3ff2 | 
[V:3] c2c3cc2 | 
[V:4] F,2F,3F,F,2 | 
[V:1] G2G2c4 | 
[V:2] e2e2f3e | 
[V:3] B4A4 | 
[V:4] G,4F,4 | 
[V:1] B2A2BAGF | 
[V:2] d2c2d2B2 | 
[V:3] z2F2F2F2 | 
[V:4] z2F,2D,2D,2 | 
[V:1] E2E4DC | 
[V:2] c2CDEFGA | 
[V:3] G4z4 | 
[V:4] C,8 | 
[V:1] D2F4E2 | 
[V:2] B4A2G2 | 
[V:3] z8 | 
[V:4] z8 | 
[V:1] FEDCB,4 | 
[V:2] AGA3GG2 | 
[V:3] z8 | 
[V:4] z8 | 
[V:1] A,8 | 
[V:2] A8 | 
[V:3] z2F4F2 | 
[V:4] z2F,2D,2D,2 | 
[V:1] z8 | 
[V:2] z4z2A2 | 
[V:3] c4c2c2 | 
[V:4] C,2C,2F,2F,2 | 
[V:1] z8 | 
[V:2] BAGFGA2G | 
[V:3] d2d2d2d2 | 
[V:4] D,2D,2B,,4 | 
[V:1] z8 | 
[V:2] A4G4 | 
[V:3] c2c2c2BA | 
[V:4] A,,4C,4 | 
[V:1] z8 | 
[V:2] F2f4e2- | 
[V:3] B2A2F2G2- | 
[V:4] D,4D,2C,2- | 
[V:1] z8 | 
[V:2] e2c2d2d2 | 
[V:3] G2A4G2 | 
[V:4] C,2A,,2B,,4 | 
[V:1] z4A,3A, | 
[V:2] c2c3cc2 | 
[V:3] A8- | 
[V:4] A,,8 | 
[V:1] C2C2C2D2 | 
[V:2] F2F2F2F2 | 
[V:3] A8 | 
[V:4] z8 | 
[V:1] F2F4E2 | 
[V:2] DEFGABc2- | 
[V:3] z8 | 
[V:4] z8 | 
[V:1] D4C4 | 
[V:2] c2B2c4 | 
[V:3] z4A4 | 
[V:4] z4A,,4 | 
[V:1] D2D2D4 | 
[V:2] z2B2B2B2 | 
[V:3] F4F4 | 
[V:4] D,4D,4 | 
[V:1] E8 | 
[V:2] c8 | 
[V:3] G8 | 
[V:4] C,8 | 
[V:1] D4E2F2- | 
[V:2] A2B2c2A2- | 
[V:3] F4G2F2- | 
[V:4] D,4C,2D,2 | 
[V:1] F2A2A2G2 | 
[V:2] A2A2A2d2 | 
[V:3] F2c4B2 | 
[V:4] F,2F,2F,2G,2 | 
[V:1] G2F4E2 | 
[V:2] cc2Bc4 | 
[V:3] c2F2G4 | 
[V:4] C,2D,2C,2C,2 | 
[V:1] F3GABA2- | 
[V:2] A4z2F2 | 
[V:3] F8 | 
[V:4] F,8 | 
[V:1] A2G2E2F2- | 
[V:2] A2B2c2F2- | 
[V:3] z8 | 
[V:4] z4z2D,2- | 
[V:1] FEDCD4 | 
[V:2] FGA4G2 | 
[V:3] z4z2D2 | 
[V:4] D,C,A,,2B,,4 | 
[V:1] C4F4 | 
[V:2] A4B4 | 
[V:3] E2E2F4 | 
[V:4] A,,4D,4 | 
[V:1] E8 ||  
[V:2] c8 ||  
[V:3] G8 ||  
[V:4] C,8 ||  
[V:1]  [K:F] [K:clef=treble][M:4/2]E4E2E2 | 
[V:2]  [K:F] [K:clef=treble-8][M:4/2]c4c2c2 | 
[V:3]  [K:F] [K:clef=treble-8][M:4/2]A4A2A2 | 
[V:4]  [K:F] [K:clef=bass][M:4/2]A,,4A,,2A,,2 | 
[V:1] F2F2F2F2 | 
[V:2] d4d4 | 
[V:3] A2A2A2A2 | 
[V:4] D,2D,2D,2D,2 | 
[V:1] F2A4GF | 
[V:2] c4A2B2 | 
[V:3] A4F4 | 
[V:4] F,2F,2F,2E,D, | 
[V:1] E4D3E | 
[V:2] c4z4 | 
[V:3] G3AB2B2 | 
[V:4] C,D,E,F,G,4 | 
[V:1] F2G4F2- | 
[V:2] z2c4d2- | 
[V:3] A2G4A2 | 
[V:4] F,2E,4D,2- | 
[V:1] F2E2D2F2- | 
[V:2] d2e2f2d2- | 
[V:3] B2c2A4- | 
[V:4] D,2C,2D,4- | 
[V:1] FGA2BAGF | 
[V:2] d4B4 | 
[V:3] A4z4 | 
[V:4] D,4z4 | 
[V:1] E4z4 | 
[V:2] c4z4 | 
[V:3] z4z2A2 | 
[V:4] z4z2F,2 | 
[V:1] z8 | 
[V:2] z8 | 
[V:3] A2A2B2B2 | 
[V:4] D,2D,2G,2G,2 | 
[V:1] z8 | 
[V:2] z8 | 
[V:3] A2c4=B2 | 
[V:4] F,2E,2D,4 | 
[V:1] z8 | 
[V:2] z4A3A | 
[V:3] c4z4 | 
[V:4] C,4C3C | 
[V:1] z8 | 
[V:2] A2G2G2c2 | 
[V:3] z8 | 
[V:4] C2B,2B,2A,2 | 
[V:1] z8 | 
[V:2] B2A2G2A2- | 
[V:3] z8 | 
[V:4] G,2F,2E,2F,2- | 
[V:1] z8 | 
[V:2] A2GFc2A2 | 
[V:3] z4z2F2- | 
[V:4] F,2E,D,C,2D,2 | 
[V:1] z8 | 
[V:2] A2A2d4 | 
[V:3] F2F2F4 | 
[V:4] D,2D,2B,,4 | 
[V:1] z8 | 
[V:2] d2d2f2f2- | 
[V:3] F2F2F2F2- | 
[V:4] B,,2B,,2B,,2D,2- | 
[V:1] z4z2C2 | 
[V:2] f2edc4 | 
[V:3] F2G2A4 | 
[V:4] D,2C,B,,A,,4- | 
[V:1] CDEFG2G2 | 
[V:2] z2c2d2d2 | 
[V:3] A2A2B4 | 
[V:4] A,,4G,,4 | 
[V:1] F2E4D2- | 
[V:2] c2c4B2 | 
[V:3] A2G4F2 | 
[V:4] z2C,2C,2D,2 | 
[V:1] D2^C2D4 | 
[V:2] A4F4 | 
[V:3] E4D4 | 
[V:4] A,,2A,,2D,4 | 
[V:1] D3DD2D2 | 
[V:2] B3BB2B2 | 
[V:3] F3FF2D2 | 
[V:4] B,,3B,,B,,2B,,2 | 
[V:1] C3B,/A,/G,2F,2- | 
[V:2] G4c2A2 | 
[V:3] E4E2F2- | 
[V:4] C,6D,2- | 
[V:1] F,2F4E2 | 
[V:2] d2c6 | 
[V:3] FGA2G4 | 
[V:4] D,E,F,2C,2C,2 | 
[V:1] F4z4 | 
[V:2] A4z4 | 
[V:3] F2F2F2E2- | 
[V:4] F,2A,2A,2G,2- | 
[V:1] z8 | 
[V:2] z8 | 
[V:3] E2C2D4 | 
[V:4] G,2C4=B,2 | 
[V:1] z2A2A2G2 | 
[V:2] z2f2f2e2- | 
[V:3] C2F2F2C2- | 
[V:4] C4z4 | 
[V:1] G2c4B2 | 
[V:2] e2c2d2d2 | 
[V:3] C2C2G2G2 | 
[V:4] z8 | 
[V:1] c2A2A3G/F/ | 
[V:2] c4z2c2- | 
[V:3] A4z2A2 | 
[V:4] z4F,4 | 
[V:1] E4F4 | 
[V:2] c2c4B2 | 
[V:3] G4F4 | 
[V:4] C,4D,4 | 
[V:1] E8 | 
[V:2] c8 | 
[V:3] G8 | 
[V:4] C,8 | 
[V:1] z2F2E2F2 | 
[V:2] z2A2c2c2 | 
[V:3] z2F2G2A2 | 
[V:4] z2D,2C,2A,,2 | 
[V:1] GFEDC4 | 
[V:2] d2B2A4 | 
[V:3] BAGFE2E2 | 
[V:4] G,,2G,,2A,,4 | 
[V:1] z2D4G2 | 
[V:2] z2B4G2 | 
[V:3] D2G3FED | 
[V:4] z2G,,4G,,2 | 
[V:1] F2EDE4 | 
[V:2] A2F2G4 | 
[V:3] FGABc4 | 
[V:4] D,4C,4 | 
[V:1] z2A2G2c2- | 
[V:2] F2f2e2f2 | 
[V:3] z2c2B2A2 | 
[V:4] z2F,2G,2F,2 | 
[V:1] cBAGF2B2 | 
[V:2] c4d3e | 
[V:3] G4A2G2 | 
[V:4] _E,4D,2G,2 | 
[V:1] A2G2A4 | 
[V:2] fge2f4- | 
[V:3] c2B2c4 | 
[V:4] F,2G,2F,4 | 
[V:1] F2G3FF2- | 
[V:2] f2d4c2- | 
[V:3] d2B3FA2 | 
[V:4] D,2G,2D,2F,2 | 
[V:1] F2E2F4 |]  
[V:2] cBAGA4 |]  
[V:3] G4F4 |]  
[V:4] C,4F,4 |]  



